X:1
T:084 - A Cruz
T:Letra: John Bowring (1792-1872)
T:Trad.: Werner Kaschel (1922-2010)
T:MÃºsica: Ithamar Conkey (1815-1867)
M:3/4
L:1/4
Q:1/4=100
K:Abmaj
V:1
"Ab"E2 A | c2 A | ("Eb7"G F) E | "Ab"A2 E | E2 "Db"F | "Ab"C2 "Eb"B, | "Ab"C2 "Bb7"=D | "Eb"E2 z | "Ab"E2 A | c2 A | ("Eb7"B A/2)G/2 F/2E/2 | "Ab"A2 E | E2 "Db"F | "Ab"E2 A | "Ab/C"C2 "Eb7"B, | "Ab"A,2 z |]
w:1.~Cris-to,em tu-a cruz_ hÃ¡ glÃ³-ria, Do-mi-nan-doo caos mai-or; To-daa luz da sa_cra his_tÃ³-ria Se con-cen-traao seu re-dor.
w:2.~Se mea-ba-tem vis_ te-mo-res, Eaes-pe-ran-Ã§a se des-faz, Ã‰ na cruz queen-con__tro_ flo-res; De-la vem pra-zer e paz.
w:3.~Seo sol bri-lha da_ ven-tu-ra, A-le-gran-doo meu vi-ver, LÃ¡ da cruz a luz__ ful_gu-ra E me traz mai-or pra-zer.
w:4.~Por i-gual, jÃ¡ sÃ£o_ ben-di-tas A ven-tu-raea dor, na cruz; A-le-gri-as i__nau_di-tas Ne-la trou-xeo bom Je-sus.
W:
W:
W:1. Cristo, em tua cruz hÃ¡ glÃ³ria,
W:Dominando o caos maior;
W:Toda a luz da sacra histÃ³ria
W:Se concentra ao seu redor.
W:
W:2. Se me abatem vis temores,
W:E a esperanÃ§a se desfaz,
W:Ã‰ na cruz que encontro flores;
W:Dela vem prazer e paz.
W:
W:
W:
W:3. Se o sol brilha da ventura,
W:Alegrando o meu viver,
W:LÃ¡ da cruz a luz fulgura
W:E me traz maior prazer.
W:
W:4. Por igual, jÃ¡ sÃ£o benditas
W:A ventura e a dor, na cruz;
W:Alegrias inauditas
W:Nela trouxe o bom Jesus.
W:
W:

